svg/furkot/public-domain/first.svg

<svg viewBox="0 0 512 512" xmlns="http://www.w3.org/2000/svg"><path d="m0 .824h510.352v191.384h-510.352zm0 191.384h31.896v255.176h-31.896zm478.456 0h31.896v255.176h-31.896zm-350.864 318.968h255.168l-63.792-95.688h-127.584zm63.792-127.584h127.584l-31.896-63.8h-63.792zm31.896-95.696h63.792l-31.896-63.792zm-158.024-252.272c-13.328 0-24.432 3.032-33.136 9.6-8.648 6.576-13.456 17.008-13.456 27.816 0 9.28 3.6 18.056 10.368 23.984 6.728 5.936 15.976 9.312 27.968 11.52l9.312.952c6.768 1.248 9.92 3.536 11.384 4.784h1.024c1.536 1.312 2.08 2.328 2.08 5.744 0 3.832-1.504 5.896-4.152 7.688-2.68 1.784-7.08 2.872-14.512 2.872-4.752 0-9.408-.512-14.512-1.92-5.144-1.4-11.008-3.824-16.584-6.696l-12.44-6.704v13.432 14.392 4.784l6.216 1.912c6.632 2.264 12.344 4.568 18.656 5.744 6.352 1.176 12.832 1.912 18.664 1.912 14.928 0 27.08-3.032 36.272-9.6 9.208-6.544 14.504-17.168 14.504-28.776 0-9.784-3.408-18.496-10.36-24.936-6.92-6.544-16.88-10.336-29-12.48l-9.304-1.912c-7.568-1.304-11.712-3.288-12.448-3.832-.896-.728-2.072-.856-2.072-3.824 0-3.44.696-5.104 3.096-6.696 2.488-1.632 7.464-2.872 14.512-2.872 3.888 0 8.04.832 12.44 1.92 4.4 1.08 9.216 2.456 14.512 4.776l11.384 4.784v-9.56h6.224 31.072v83.44 7.688h8.288 15.528 8.296v-7.688-83.44h30.056 8.288v-7.688-11.52-7.656h-8.288-93.24l-7.88.896-.384 1.112v9.48-6.48l-3.096-1.176c-5.96-1.856-11.792-2.912-17.608-3.832-5.8-.92-11.96-1.912-17.608-1.912zm170.944 1.912-5.328.832-1.952 3.952-42.48 102.616-4.144 10.56h12.44 15.528 6.224l1.024-5.744 8.288-21.088h38.336l8.296 21.088 2.072 5.744h5.168 15.536 8.288 4.144 4.152 14.512 8.296v-7.688-35.504h8.288c4.792 0 7.792.896 9.32 1.92 1.304.856 3.92 4.264 7.24 10.552l14.512 25.896 2.072 4.792h5.168 15.536 13.456l-5.168-11.512-15.528-27.816c-3.256-6.128-6.632-11.36-10.368-15.344-.544-.576-1.496-.416-2.072-.96 2.36-1.72 5.52-2.52 7.24-4.784 4.4-5.712 6.216-12.536 6.216-20.128 0-4.368-2.296-6.704-3.472-10.56h3.472 31.064v83.448 7.688h8.304 14.504 8.296v-7.688-83.448h31.064 8.304v-7.688-11.504-7.664h-8.304-93.232-7.336l-.96 7.632.576 9.24c-1.848-2.968-1.848-5.096-4.72-7.336-8.288-6.536-19.392-9.592-33.136-9.592h-33.144-8.296v7.648 99.744l-42.48-102.616-2.08-4.776h-5.168zm98.432 26.864h10.368c5.896 0 8.736 1.496 10.368 2.864 1.656 1.344 3.088 3.192 3.088 7.688s-1.368 6.224-3.088 7.656c-1.632 1.376-4.432 2.872-10.368 2.872h-10.368zm-90.136 16.296 9.312 21.08h-17.608zm118.112 14.384 1.016 4.784-1.016 2.872c-.352-.32-.672-.736-1.024-.96-2.936-1.912-6.792-2.136-10.36-2.872 4.176-.6 8.032-1.88 11.384-3.824z"/></svg>

<svg xmlns="http://www.w3.org/2000/svg" viewBox="0 0 512 512"><path d="M0 0.824L510.352 0.824 510.352 192.208 0 192.208ZM0 192.208L31.896 192.208 31.896 447.384 0 447.384ZM478.456 192.208L510.352 192.208 510.352 447.384 478.456 447.384ZM127.592 511.176 127.592 511.176L382.76 511.176 318.968 415.488 191.384 415.488ZM191.384 383.592 191.384 383.592L318.968 383.592 287.072 319.792 223.28 319.792ZM223.28 287.896 223.28 287.896L287.072 287.896 255.176 224.104 255.176 224.104ZM65.256 35.624 65.256 35.624C51.928 35.624 40.824 38.656 32.12 45.224 23.472 51.8 18.664 62.232 18.664 73.04 18.664 82.32 22.264 91.096 29.032 97.024 35.76 102.96 45.008 106.336 57 108.544L66.312 109.496C73.08 110.744 76.232 113.032 77.696 114.28L78.72 114.28C80.256 115.592 80.8 116.608 80.8 120.024 80.8 123.856 79.296 125.92 76.648 127.712 73.968 129.496 69.568 130.584 62.136 130.584 57.384 130.584 52.728 130.072 47.624 128.664 42.48 127.264 36.616 124.84 31.04 121.968L18.6 115.264 18.6 128.696 18.6 143.088 18.6 147.872 24.816 149.784C31.448 152.048 37.16 154.352 43.472 155.528 49.824 156.704 56.304 157.44 62.136 157.44 77.064 157.44 89.216 154.408 98.408 147.84 107.616 141.296 112.912 130.672 112.912 119.064 112.912 109.28 109.504 100.568 102.552 94.128 95.632 87.584 85.672 83.792 73.552 81.648L64.248 79.736C56.68 78.432 52.536 76.448 51.8 75.904 50.904 75.176 49.728 75.048 49.728 72.08 49.728 68.64 50.424 66.976 52.824 65.384 55.312 63.752 60.288 62.512 67.336 62.512 71.224 62.512 75.376 63.344 79.776 64.432 84.176 65.512 88.992 66.888 94.288 69.208L105.672 73.992 105.672 64.432 111.896 64.432 142.968 64.432 142.968 147.872 142.968 155.56 151.256 155.56 166.784 155.56 175.08 155.56 175.08 147.872 175.08 64.432 205.136 64.432 213.424 64.432 213.424 56.744 213.424 45.224 213.424 37.568 205.136 37.568 111.896 37.568 104.016 38.464 103.632 39.576 103.632 49.056 103.632 42.576 100.536 41.4C94.576 39.544 88.744 38.488 82.928 37.568 77.128 36.648 70.968 35.656 65.32 35.656ZM236.2 37.536L230.872 38.368 228.92 42.32 186.44 144.936 182.296 155.496 194.736 155.496 210.264 155.496 216.488 155.496 217.512 149.752 225.8 128.664 264.136 128.664 272.432 149.752 274.504 155.496 279.672 155.496 295.208 155.496 303.496 155.496 307.64 155.496 311.792 155.496 326.304 155.496 334.6 155.496 334.6 147.808 334.6 112.304 342.888 112.304C347.68 112.304 350.68 113.2 352.208 114.224 353.512 115.08 356.128 118.488 359.448 124.776L373.96 150.672 376.032 155.464 381.2 155.464 396.736 155.464 410.192 155.464 405.024 143.952 389.496 116.136C386.24 110.008 382.864 104.776 379.128 100.792 378.584 100.216 377.632 100.376 377.056 99.832 379.416 98.112 382.576 97.312 384.296 95.048 388.696 89.336 390.512 82.512 390.512 74.92 390.512 70.552 388.216 68.216 387.04 64.36L390.512 64.36 421.576 64.36 421.576 147.808 421.576 155.496 429.88 155.496 444.384 155.496 452.68 155.496 452.68 147.808 452.68 64.36 483.744 64.36 492.048 64.36 492.048 56.672 492.048 45.168 492.048 37.504 483.744 37.504 390.512 37.504 383.176 37.504 382.216 45.136 382.792 54.376C380.944 51.408 380.944 49.28 378.072 47.04 369.784 40.504 358.68 37.448 344.936 37.448L311.792 37.448 303.496 37.448 303.496 45.096 303.496 144.84 261.016 42.224 258.936 37.448 253.768 37.448ZM334.632 64.4L345 64.4C350.896 64.4 353.736 65.896 355.368 67.264 357.024 68.608 358.456 70.456 358.456 74.952 358.456 79.448 357.088 81.176 355.368 82.608 353.736 83.984 350.936 85.48 345 85.48L334.632 85.48 334.632 64.4ZM244.496 80.696L253.808 101.776 236.2 101.776ZM362.608 95.08L363.624 99.864 362.608 102.736C362.256 102.416 361.936 102 361.584 101.776 358.648 99.864 354.792 99.64 351.224 98.904 355.4 98.304 359.256 97.024 362.608 95.08Z"/></svg>
